X: 38573
T: Stolen Kiss, The
R: jig
M: 6/8
K: Edorian
|:EEE BEA|FFF BFA|GGG BGA|ABA AGF|
EEE BEA|FFF BFA|GGG BGA|ABA ABd:|
|:eee edB|ABA ABd|eee edB|ABc def|
ggg fgf|efe edB|ABd BAF|1 ABA ABd:|2 ABA AGF||

